X:13
T:Dieu, nous Te louons - W1
C:R.Marthouret
M:6/8
L:1/8
K:Em
"Mim"E3 DEG|G3- Gz G|A3 GEG|F3- F2z|E2F GFE|D3 B,3|A,3 B,2D|"FIN"E3||
EEE|D2D G2G|F2F E2E|D2-D CCD|B,3 EEE|F2F B2B|A2G F2F|G2F EDE|F3- F2z|]
